X: 0
T: Caroline and Henry's Wedding March
C: Callum Beck
R: March
M: 4/4
L: 1/8
K: Dmaj
Ad3/e/ |:"D"f3e d3e | f2A2A2 d3/c/ | "G"B3/A/ GB g3/f/ ed | "D"f3g/f/ "A"e2 d3/e/ | 
"D"f3e d3c | "G"B2 B/d3/ "A"A2 d3/c/ | "G"B2 e/g3/ "A"e2 d/c3/ |1 "D"d4 dAd3/e/ :|2"D" d4 d2 d3/c/ || 
|: "G"B3A G2 e/g3/ | "A"e3B c2 a3/g/ | "D"f3e d3/e/ e/f3/ |"A" e4 e2 d3/c/ | 
"G"B3 c d2 e3/d/ | "A"c3/B/ c/d3/ e2 d3/c/ | "G"B2 e/g3/ "A"e2 d/c3/ |1"D" d4 d2 d3/c/ :|2"D" d4 d4 |]